img/workers/workers10.svg

<svg xmlns="http://www.w3.org/2000/svg" viewBox="0 0 612 612"><circle cx="259.067" cy="165.184" r="13.447"/><circle cx="334.144" cy="165.184" r="13.447"/><path d="M450.88 491.922c-33.106 0-60.04 26.934-60.04 60.04 0 13.355 4.388 25.702 11.793 35.685a18.032 18.032 0 0 1-21.63-7.993l-13.3-23.052v-98.027h28.875v-77.35l34.837 34.84c6.788 6.794 15.815 10.537 25.416 10.537 9.602 0 18.63-3.743 25.413-10.534 6.795-6.79 10.538-15.814 10.54-25.416 0-9.6-3.744-18.63-10.537-25.415 0 0-117.827-118.517-119.33-119.847 16.94-17.145 26.65-40.226 26.944-64.44 12.103-2.87 20.95-13.662 20.95-26.6 0-12.94-8.85-23.734-20.958-26.6-.4-24.334-10.037-47.154-27.287-64.402a93.762 93.762 0 0 0-6.983-6.292V0h-117.95v57.066c-21.397 17.48-33.806 43.116-34.265 70.678-12.11 2.855-20.963 13.65-20.963 26.607 0 12.954 8.846 23.745 20.95 26.605.294 24.215 10.005 47.296 26.946 64.44-5.032 4.46-118.707 119.843-118.707 119.843-14.013 14.014-14.013 36.815 0 50.826 6.787 6.795 15.812 10.538 25.415 10.538 9.6 0 18.628-3.743 25.413-10.536l34.213-34.213v76.723h28.874V605.92H367.7v-26.54l3.44 5.962a29.41 29.41 0 0 0 19.96 14.198 29.397 29.397 0 0 0 19.562-3.04c10.654 9.626 24.76 15.5 40.215 15.5 33.105 0 60.04-26.934 60.04-60.04.002-33.105-26.932-60.038-60.037-60.038zm-213.985-7.062h54.02v21.346h-54.02V484.86zm119.423 54.077h-54.02V517.59h54.02v21.347zm0-32.73h-54.02V484.86h54.02v21.346zM236.895 517.59h54.02v21.347h-54.02V517.59zm54.02 55.217a38.303 38.303 0 0 0-27.01-11.073 38.303 38.303 0 0 0-27.01 11.073V550.32h54.02v22.487zm-27.01.312c12.903 0 23.707 9.596 26.367 21.416h-52.736c2.66-11.818 13.464-21.417 26.368-21.417zm92.413-.31a38.307 38.307 0 0 0-27.01-11.074 38.306 38.306 0 0 0-27.01 11.07v-22.485h54.02v22.49zm-.643 21.726H302.94c2.66-11.82 13.464-21.417 26.367-21.417 12.905 0 23.71 9.598 26.368 21.416zm.643-121.06h-54.02v-14.9h54.02v14.9zM296.6 289.102c-18.307 0-34.503-10.556-42.34-26.17a93.2 93.2 0 0 0 42.347 10.175 93.196 93.196 0 0 0 42.343-10.172c-7.844 15.612-24.043 26.167-42.35 26.167zm-38.98-3.47c10.44 9.267 24.153 14.854 38.98 14.854 14.83 0 28.543-5.587 38.987-14.855h42.624a86.934 86.934 0 0 1 5.534 18.5H209.482c1.16-6.37 3-12.565 5.523-18.5h42.614zm134.694 5.767l25.362 25.364-21.098 21.1v-17.652c0-9.807-1.467-19.52-4.264-28.813zm-7.122 44.038h-177.17s.054-18.363.136-19.923h176.9c.08 1.56.134 19.923.134 19.923zm-177.17 11.385h177.17V363.9h-177.17v-17.077zm-11.386-12.814l-18.858-18.852 22.76-22.76c-2.578 8.94-3.9 18.273-3.9 27.813v13.8zm11.385 41.274h177.173v17.077H208.02v-17.076zm0 28.46h177.173v18.5H208.02v-18.5zm188.557-49.782l29.15-29.15 16.512 16.517-34.73 34.73-10.933-10.933v-11.165zm35.493 46.66l-16.512-16.512 34.73-34.73 16.51 16.515-34.728 34.727zm42.12 7.397c-4.637 4.642-10.8 7.2-17.36 7.2-6.247 0-12.123-2.344-16.678-6.58l34.664-34.664c4.235 4.554 6.58 10.43 6.58 16.678 0 6.558-2.56 12.723-7.205 17.365zM365.648 264.695a89.97 89.97 0 0 1 6.718 9.55h-26.848a58.184 58.184 0 0 0 8.698-21.083l.147-.117a88.906 88.906 0 0 1 4.89 4.52 90.12 90.12 0 0 1 5.61 6.156l.785.974zm33.776-110.343c0 6.553-3.89 12.157-9.535 14.62v-29.242a15.895 15.895 0 0 1 9.535 14.623zM249.016 40.863h95.18V55.31h-95.18V40.863zm95.18-29.478V29.48h-95.18V11.384h95.18zM193.79 154.353c0-6.563 3.89-12.17 9.535-14.63v29.26c-5.644-2.46-9.535-8.067-9.535-14.63zm20.92-25.032c0-24.302 10.62-47.003 29.166-62.625h105.5a81.99 81.99 0 0 1 5.136 4.705c15.47 15.47 23.99 36.04 23.99 57.922v50.505c0 23.15-9.813 45.214-26.967 60.745l-.952.837a81.755 81.755 0 0 1-53.978 20.315 81.757 81.757 0 0 1-53.978-20.316l-.72-.626c-17.3-15.543-27.2-37.703-27.2-60.956v-50.506h.002zm10.826 137.996a88.884 88.884 0 0 1 13.32-14.263c.048.037.094.075.14.112a58.218 58.218 0 0 0 8.693 21.083h-26.82a89.843 89.843 0 0 1 4.666-6.932zm-80.372 80.455l34.727 34.73-16.512 16.512-34.73-34.73 16.516-16.51zm-8.154 67.448c-6.56 0-12.724-2.557-17.364-7.202-9.574-9.574-9.574-25.154 0-34.73l.955-.954 34.73 34.727-.958.957c-4.64 4.644-10.804 7.2-17.362 7.2zm50.93-40.77l-34.727-34.728 16.513-16.513 26.91 26.9v15.647l-8.696 8.695zm20.08 59.182h177.173v13.562H208.02V433.63zm82.894 24.946v14.9h-54.02v-14.9h54.02zm159.966 142.04c-26.828 0-48.655-21.827-48.655-48.654 0-26.83 21.827-48.655 48.655-48.655s48.655 21.827 48.655 48.655-21.827 48.653-48.655 48.653z"/></svg>

<?xml version="1.0" encoding="iso-8859-1"?>
<!-- Generator: Adobe Illustrator 18.1.1, SVG Export Plug-In . SVG Version: 6.00 Build 0)  -->
<svg version="1.1" id="Capa_1" xmlns="http://www.w3.org/2000/svg" xmlns:xlink="http://www.w3.org/1999/xlink" x="0px" y="0px"
	 viewBox="0 0 612 612" style="enable-background:new 0 0 612 612;" xml:space="preserve">
<g>
	<g>
		<circle cx="259.067" cy="165.184" r="13.447"/>
		<circle cx="334.144" cy="165.184" r="13.447"/>
		<path d="M450.88,491.922c-33.106,0-60.039,26.934-60.039,60.039c0,13.356,4.387,25.703,11.792,35.686
			c-2.98,1.052-6.215,1.319-9.389,0.712c-5.156-0.985-9.616-4.16-12.24-8.705l-13.3-23.051v-98.027h28.874v-77.349l34.837,34.838
			c6.788,6.795,15.815,10.538,25.416,10.538c9.601,0,18.628-3.743,25.412-10.534c6.795-6.788,10.538-15.813,10.539-25.415
			c0-9.601-3.743-18.629-10.536-25.415c0,0-117.827-118.516-119.33-119.846c16.94-17.145,26.651-40.226,26.944-64.441
			c12.103-2.87,20.949-13.661,20.949-26.599c0-12.94-8.85-23.734-20.957-26.601c-0.4-24.333-10.037-47.153-27.287-64.401
			c-2.214-2.214-4.558-4.312-6.983-6.293V0H237.632v57.066c-21.397,17.48-33.806,43.116-34.265,70.678
			c-12.11,2.855-20.963,13.65-20.963,26.607c0,12.953,8.846,23.744,20.949,26.604c0.295,24.215,10.006,47.296,26.947,64.441
			c-5.032,4.46-118.707,119.842-118.707,119.842c-14.013,14.014-14.013,36.815-0.001,50.826
			c6.788,6.795,15.813,10.538,25.416,10.538c9.601,0,18.628-3.743,25.413-10.536l34.212-34.213v76.723h28.874v147.344H367.7v-26.539
			l3.44,5.961c4.278,7.414,11.554,12.59,19.961,14.198c1.84,0.353,3.693,0.525,5.536,0.525c4.897,0,9.718-1.227,14.026-3.566
			c10.653,9.627,24.759,15.5,40.214,15.5c33.105,0,60.039-26.933,60.039-60.038C510.919,518.855,483.985,491.922,450.88,491.922z
			 M236.895,484.86h54.02v21.346h-54.02V484.86z M356.318,538.937h-54.02v-21.346h54.02L356.318,538.937L356.318,538.937z
			 M356.318,506.206h-54.02V484.86h54.02L356.318,506.206L356.318,506.206z M236.895,517.591h54.02v21.346h-54.02V517.591z
			 M290.914,572.807c-6.942-6.858-16.486-11.073-27.01-11.073c-10.524,0-20.068,4.215-27.01,11.073v-22.486h54.02V572.807z
			 M263.904,573.119c12.904,0,23.708,9.597,26.368,21.417h-52.736C240.196,582.718,251,573.119,263.904,573.119z M356.318,572.809
			c-6.942-6.858-16.488-11.073-27.011-11.073c-10.522,0-20.067,4.215-27.008,11.071v-22.486h54.02L356.318,572.809L356.318,572.809z
			 M355.675,594.536h-52.736c2.66-11.819,13.465-21.417,26.368-21.417C342.212,573.119,353.016,582.718,355.675,594.536z
			 M356.318,473.476h-54.02v-14.9h54.02L356.318,473.476L356.318,473.476z M296.601,289.102c-18.308,0-34.504-10.556-42.342-26.169
			c13.011,6.634,27.501,10.174,42.348,10.174c14.845,0,29.332-3.539,42.343-10.172C331.106,278.547,314.907,289.102,296.601,289.102
			z M257.619,285.631c10.441,9.268,24.154,14.855,38.982,14.855c14.828,0,28.542-5.587,38.986-14.855h42.624
			c2.52,5.93,4.375,12.119,5.533,18.5H209.482c1.161-6.37,3.001-12.566,5.523-18.5H257.619z M392.314,291.399l25.362,25.365
			l-21.098,21.1v-17.652C396.577,310.405,395.111,300.693,392.314,291.399z M385.192,335.438H208.021c0,0,0.055-18.363,0.137-19.923
			h176.901C385.138,317.074,385.192,335.438,385.192,335.438z M208.021,346.823h177.172V363.9H208.021V346.823z M196.636,334.009
			l-18.858-18.851l22.761-22.761c-2.579,8.94-3.902,18.274-3.902,27.814V334.009z M208.021,375.284h177.172v17.077H208.021V375.284z
			 M208.021,403.745h177.172v18.5H208.021V403.745z M396.577,353.962l29.149-29.149l16.513,16.516l-34.73,34.73l-10.932-10.932
			V353.962z M432.07,400.622l-16.512-16.512l34.729-34.73l16.512,16.515L432.07,400.622z M474.191,408.019
			c-4.638,4.643-10.802,7.201-17.361,7.201c-6.247,0-12.123-2.344-16.678-6.579l34.664-34.665c4.235,4.554,6.579,10.43,6.579,16.678
			C481.395,397.212,478.837,403.377,474.191,408.019z M365.647,264.696c2.468,3.064,4.705,6.254,6.718,9.55h-26.848
			c4.18-6.261,7.182-13.39,8.698-21.083c0.048-0.038,0.097-0.078,0.147-0.117c1.682,1.446,3.321,2.951,4.891,4.52
			c1.951,1.951,3.835,4.017,5.61,6.156L365.647,264.696z M399.423,154.353c0,6.553-3.891,12.157-9.535,14.621v-29.243
			C395.532,142.196,399.423,147.8,399.423,154.353z M249.016,40.863h95.179V55.31h-95.179L249.016,40.863L249.016,40.863z
			 M344.195,11.385v18.094h-95.179V11.385H344.195z M193.79,154.353c0-6.563,3.891-12.17,9.535-14.629v29.258
			C197.681,166.523,193.79,160.916,193.79,154.353z M214.709,129.321c0-24.303,10.62-47.004,29.167-62.626h105.499
			c1.776,1.497,3.496,3.064,5.137,4.705c15.47,15.47,23.99,36.041,23.99,57.922v50.505c0,23.149-9.813,45.214-26.967,60.745
			l-0.952,0.837c-14.918,13.101-34.088,20.316-53.978,20.316c-19.89,0-39.059-7.215-53.978-20.316l-0.72-0.625
			c-17.299-15.543-27.201-37.703-27.201-60.956v-50.506H214.709z M225.536,267.316c3.885-5.217,8.361-9.994,13.321-14.263
			c0.047,0.037,0.093,0.075,0.139,0.112c1.516,7.693,4.515,14.821,8.693,21.083h-26.819
			C222.314,271.88,223.861,269.563,225.536,267.316z M145.164,347.771l34.727,34.729l-16.513,16.512l-34.729-34.729L145.164,347.771
			z M137.01,415.218c-6.559,0-12.724-2.557-17.364-7.202c-9.574-9.574-9.574-25.154,0-34.729l0.955-0.955l34.729,34.727
			l-0.958,0.958C149.733,412.661,143.568,415.218,137.01,415.218z M187.94,374.449l-34.727-34.729l16.513-16.513l26.91,26.899
			v15.648L187.94,374.449z M208.021,433.63h177.172v13.562H208.021V433.63z M290.914,458.576v14.9h-54.02v-14.9H290.914z
			 M450.88,600.615c-26.828,0-48.655-21.826-48.655-48.653c0-26.829,21.827-48.655,48.655-48.655s48.655,21.827,48.655,48.655
			S477.708,600.615,450.88,600.615z"/>
	</g>
</g>
<g>
</g>
<g>
</g>
<g>
</g>
<g>
</g>
<g>
</g>
<g>
</g>
<g>
</g>
<g>
</g>
<g>
</g>
<g>
</g>
<g>
</g>
<g>
</g>
<g>
</g>
<g>
</g>
<g>
</g>
</svg>
